X:2

T:Who’ll buy my besoms?

M:3/4

L:1/8

N:”Allegretto”

S:Stanford/Petrie – Complete Collection (1905), No. 856

Z:AK/Fiddler’s Companion

K:G

(Ad) de ^cA | (Ad) de ^c>g | fd e>d ^cA | {A}(GFGA) B2 ||

=cA A>G FD | DG GA B2 | (cA) (c/B/)(A/G/) FD | FG A>B G2 ||

 

WHO'LL COME TO FIGHT IN THE SNOW? Irish, Slip Jig. D Major. Standard. AABB. McNulty (Dance Music of Ireland), 1965; pg. 27.

 

WHO'LL DANCE WI' WATTIE. AKA and see "Wha'll Dance Wi' Wattie."

 


WHOOP(E)! DO(E) ME NE(E) HARM, GOOD MAN. AKA and see "Paddy Whack [1]." Irish, English; Country Dance Air (3/4 time). G Mixolydian (Merryweather): D Major (Chappell): C Mixolydian (Kines). Standard tuning. One part (Kines, Merryweather): AB (Chappell). Composed by William Corkine, 1610. Chappell (1859) and Merryweather (1989) point out that the final four bars will support the title words once (Chappell) or twice (Merryweather), though the lyrics (probably bawdy) have been lost. The ballad was referred to twice by Shakespeare in A Winter's Tale (act iv, sc. 3). Chappell's air, which appears in the W. Corkine's First Book of Ayres (1610) was later adapted by Thomas Moore for use to his song "While History's Muse." The melody Kines uses, different from Chappell and Merryweather's, was quoted by Sir Fredrick Bridge from a 17th century viol da gamba book. Chappell (Popular Music of the Olden Times), Vol. 1, 1859; pg. 96. Kines (Songs From Shakespeare's Plays and Popular Songs of Shakespeare's Time), 1964; pg. 28. Merryweather (Merryweather's Tunes for the English Bagpipe), 1989; pg. 36.

